plexos/res/components/graphs/desktop/grid_graph/grid_graph_02-2.svg

<svg id="Layer_1" data-name="Layer 1" xmlns="http://www.w3.org/2000/svg" width="318" height="183" viewBox="0 0 318 183"><defs><style>.cls-1{fill:#00a2e8;}.cls-2{fill:none;stroke:#0f7b9b;stroke-miterlimit:10;stroke-width:4.45px;}.cls-3{fill:#0f7b9b;}.cls-4{fill:#c7c7c7;}</style></defs><path class="cls-1" d="M171.71,76H146.29a2.79,2.79,0,0,0-2.79,2.79v25.42a2.79,2.79,0,0,0,2.79,2.79h25.42a2.79,2.79,0,0,0,2.79-2.79V78.79A2.73,2.73,0,0,0,171.71,76Zm-3.09,23.52a1.75,1.75,0,0,1-1.7,1.7H151.18a1.75,1.75,0,0,1-1.7-1.7V83.77a1.75,1.75,0,0,1,1.7-1.69h15.74a1.75,1.75,0,0,1,1.7,1.69Z"/><path class="cls-1" d="M171.71,111H146.29a2.79,2.79,0,0,0-2.79,2.79v25.42a2.79,2.79,0,0,0,2.79,2.79h25.42a2.79,2.79,0,0,0,2.79-2.79V113.79A2.73,2.73,0,0,0,171.71,111Zm-3.09,23.52a1.75,1.75,0,0,1-1.7,1.7H151.18a1.75,1.75,0,0,1-1.7-1.7V118.77a1.75,1.75,0,0,1,1.7-1.69h15.74a1.75,1.75,0,0,1,1.7,1.69Z"/><line class="cls-2" x1="121.4" y1="30.3" x2="199.8" y2="30.3"/><polygon class="cls-3" points="198.2 35.8 207.8 30.3 198.2 24.8 198.2 35.8"/><line class="cls-2" x1="97.5" y1="54.7" x2="97.5" y2="132.4"/><polygon class="cls-3" points="92 130.7 97.5 140.3 103.1 130.7 92 130.7"/><path class="cls-3" d="M92,41.4V52.6h11.2V41.4Zm6.3,6.5v2.6H96.7V47.9l-2.3-4.1H96l1.5,2.7L99,43.8h1.6Z"/><path class="cls-3" d="M108.4,25.2V36.4h11.2V25.2Zm7.1,9L114,32l-1.5,2.3h-1.8l2.4-3.5-2.3-3.3h1.8l1.3,2,1.3-2H117l-2.3,3.3,2.4,3.5h-1.6Z"/><path class="cls-4" d="M206.7,41.05H181.3a2.79,2.79,0,0,0-2.8,2.79V69.26a2.79,2.79,0,0,0,2.8,2.79h25.4a2.79,2.79,0,0,0,2.8-2.79V43.74A2.77,2.77,0,0,0,206.7,41.05Zm-3.8,17.44H185.1V54.31h17.8Z"/><path class="cls-4" d="M206.7,76H181.3a2.79,2.79,0,0,0-2.8,2.79v25.42a2.79,2.79,0,0,0,2.8,2.79h25.4a2.79,2.79,0,0,0,2.8-2.79V78.69A2.77,2.77,0,0,0,206.7,76Zm-3.8,17.44H185.1V89.26h17.8Z"/><path class="cls-4" d="M206.7,111H181.3a2.79,2.79,0,0,0-2.8,2.79v25.42a2.79,2.79,0,0,0,2.8,2.79h25.4a2.79,2.79,0,0,0,2.8-2.79V113.69A2.77,2.77,0,0,0,206.7,111Zm-3.8,17.44H185.1v-4.18h17.8Z"/><path class="cls-1" d="M136.7,76H111.3a2.79,2.79,0,0,0-2.8,2.79v25.42a2.79,2.79,0,0,0,2.8,2.79h25.4a2.79,2.79,0,0,0,2.8-2.79V78.79A2.73,2.73,0,0,0,136.7,76Zm-7.5,23h-10V95.64h3V87.46h-2.5V84.07h6.5V95.64h3Z"/><path class="cls-1" d="M136.7,111H111.3a2.8,2.8,0,0,0-2.8,2.8v25.4a2.8,2.8,0,0,0,2.8,2.8h25.4a2.8,2.8,0,0,0,2.8-2.8V113.8A2.86,2.86,0,0,0,136.7,111Zm-7.2,23.1H118.8v-3.4c1.8-1.5,3.1-2.7,3.9-3.4a10.24,10.24,0,0,0,1.8-1.9,2.4,2.4,0,0,0,.6-1.5,1.49,1.49,0,0,0-.6-1.3,2.41,2.41,0,0,0-1.5-.4,8.39,8.39,0,0,0-3.7.9v-3.5a9,9,0,0,1,2.2-.6,16.59,16.59,0,0,1,2.4-.2,5.49,5.49,0,0,1,3.7,1.2,4.2,4.2,0,0,1,1.4,3.5,5.56,5.56,0,0,1-.5,2.3,7.33,7.33,0,0,1-1.6,2.1c-.7.7-1.8,1.6-3.1,2.7h5.7v3.5Z"/><path class="cls-1" d="M171.7,41H146.3a2.8,2.8,0,0,0-2.8,2.8V69.2a2.8,2.8,0,0,0,2.8,2.8h25.4a2.8,2.8,0,0,0,2.8-2.8V43.8A2.8,2.8,0,0,0,171.7,41Zm-9,22.2a6.87,6.87,0,0,1-4.3,1.2,12.62,12.62,0,0,1-4.6-.8V60.1a6.36,6.36,0,0,0,1.8.6,6.15,6.15,0,0,0,1.9.2,5,5,0,0,0,2-.4,1.36,1.36,0,0,0,.7-1.3,1.43,1.43,0,0,0-.5-1.1,3.41,3.41,0,0,0-1.6-.4h-2.5V54.6h2.5c1.3,0,1.9-.4,1.9-1.2a1,1,0,0,0-.6-.9,4,4,0,0,0-1.7-.3,8.41,8.41,0,0,0-3.7.8V49.5a11,11,0,0,1,4.4-.7,7.12,7.12,0,0,1,4.1,1,3.34,3.34,0,0,1,1.5,2.8,3.17,3.17,0,0,1-.7,2.3,3.7,3.7,0,0,1-2,1.3,3.32,3.32,0,0,1,2.1,1.3,3.74,3.74,0,0,1,.8,2.5A3.45,3.45,0,0,1,162.7,63.2Z"/><path class="cls-1" d="M136.7,72H111.3a2.8,2.8,0,0,1-2.8-2.8V43.8a2.8,2.8,0,0,1,2.8-2.8h25.4a2.8,2.8,0,0,1,2.8,2.8V69.2A2.73,2.73,0,0,1,136.7,72Z"/></svg>

<?xml version="1.0" encoding="utf-8"?>
<!-- Generator: Adobe Illustrator 25.0.1, SVG Export Plug-In . SVG Version: 6.00 Build 0)  -->
<svg version="1.1" id="Layer_1" xmlns="http://www.w3.org/2000/svg" xmlns:xlink="http://www.w3.org/1999/xlink" x="0px" y="0px"
	 viewBox="0 0 318 183" style="enable-background:new 0 0 318 183;" xml:space="preserve">
<style type="text/css">
	.st0{fill:#888888;}
	.st1{fill:#00A2E8;}
	.st2{fill:none;stroke:#0F7B9B;stroke-width:4.4483;stroke-miterlimit:10;}
	.st3{fill:#0F7B9B;}
	.st4{fill:#888888;}
	.st5{fill:#00A2E8;}
</style>
<path class="st1" d="M171.7,76h-25.4c-1.5,0-2.8,1.2-2.8,2.8v25.4c0,1.5,1.2,2.8,2.8,2.8h25.4c1.5,0,2.8-1.2,2.8-2.8V78.8
	C174.5,77.2,173.3,76,171.7,76z M168.6,99.5c0,0.9-0.8,1.7-1.7,1.7h-15.7c-0.9,0-1.7-0.8-1.7-1.7V83.8c0-0.9,0.8-1.7,1.7-1.7h15.7
	c0.9,0,1.7,0.8,1.7,1.7V99.5z"/>
<g>
	<g>
		<path class="st1" d="M136.7,76h-25.4c-1.5,0-2.8,1.2-2.8,2.8v25.4c0,1.5,1.2,2.8,2.8,2.8h25.4c1.5,0,2.8-1.2,2.8-2.8V78.8
			C139.5,77.2,138.3,76,136.7,76z M133.6,99.5c0,0.9-0.8,1.7-1.7,1.7h-15.7c-0.9,0-1.7-0.8-1.7-1.7V83.8c0-0.9,0.8-1.7,1.7-1.7h15.7
			c0.9,0,1.7,0.8,1.7,1.7V99.5z"/>
	</g>
</g>
<g>
	<g>
		<path class="st1" d="M206.7,41.1h-25.4c-1.5,0-2.8,1.2-2.8,2.8v25.4c0,1.5,1.2,2.8,2.8,2.8h25.4c1.5,0,2.8-1.2,2.8-2.8V43.8
			C209.5,42.2,208.2,41.1,206.7,41.1z M203.6,64.6c0,0.9-0.8,1.7-1.7,1.7h-15.7c-0.9,0-1.7-0.8-1.7-1.7V48.8c0-0.9,0.8-1.7,1.7-1.7
			h15.7c0.9,0,1.7,0.8,1.7,1.7V64.6z"/>
	</g>
</g>
<g>
	<g>
		<path class="st1" d="M206.7,111h-25.4c-1.5,0-2.8,1.2-2.8,2.8v25.4c0,1.5,1.2,2.8,2.8,2.8h25.4c1.5,0,2.8-1.2,2.8-2.8v-25.4
			C209.5,112.2,208.2,111,206.7,111z M203.6,134.5c0,0.9-0.8,1.7-1.7,1.7h-15.7c-0.9,0-1.7-0.8-1.7-1.7v-15.7c0-0.9,0.8-1.7,1.7-1.7
			h15.7c0.9,0,1.7,0.8,1.7,1.7V134.5z"/>
	</g>
</g>
<g>
	<g>
		<path class="st1" d="M136.7,41h-25.4c-1.5,0-2.8,1.2-2.8,2.8v25.4c0,1.5,1.2,2.8,2.8,2.8h25.4c1.5,0,2.8-1.2,2.8-2.8V43.8
			C139.5,42.2,138.2,41,136.7,41z M133.6,64.5c0,0.9-0.8,1.7-1.7,1.7h-15.7c-0.9,0-1.7-0.8-1.7-1.7V48.8c0-0.9,0.8-1.7,1.7-1.7h15.7
			c0.9,0,1.7,0.8,1.7,1.7V64.5z"/>
	</g>
</g>
<g>
	<g>
		<path class="st1" d="M206.7,76h-25.4c-1.5,0-2.8,1.2-2.8,2.8v25.4c0,1.5,1.2,2.8,2.8,2.8h25.4c1.5,0,2.8-1.2,2.8-2.8V78.8
			C209.5,77.2,208.2,76,206.7,76z M203.6,99.5c0,0.9-0.8,1.7-1.7,1.7h-15.7c-0.9,0-1.7-0.8-1.7-1.7V83.8c0-0.9,0.8-1.7,1.7-1.7h15.7
			c0.9,0,1.7,0.8,1.7,1.7V99.5z"/>
	</g>
</g>
<g>
	<g>
		<path class="st1" d="M171.7,111h-25.4c-1.5,0-2.8,1.2-2.8,2.8v25.4c0,1.5,1.2,2.8,2.8,2.8h25.4c1.5,0,2.8-1.2,2.8-2.8v-25.4
			C174.5,112.2,173.3,111,171.7,111z M168.6,134.5c0,0.9-0.8,1.7-1.7,1.7h-15.7c-0.9,0-1.7-0.8-1.7-1.7v-15.7c0-0.9,0.8-1.7,1.7-1.7
			h15.7c0.9,0,1.7,0.8,1.7,1.7V134.5z"/>
	</g>
</g>
<g>
	<g>
		<path class="st1" d="M136.7,111h-25.4c-1.5,0-2.8,1.2-2.8,2.8v25.4c0,1.5,1.2,2.8,2.8,2.8h25.4c1.5,0,2.8-1.2,2.8-2.8v-25.4
			C139.5,112.2,138.3,111,136.7,111z M133.6,134.5c0,0.9-0.8,1.7-1.7,1.7h-15.7c-0.9,0-1.7-0.8-1.7-1.7v-15.7c0-0.9,0.8-1.7,1.7-1.7
			h15.7c0.9,0,1.7,0.8,1.7,1.7V134.5z"/>
	</g>
</g>
<g>
	<g>
		<path class="st1" d="M171.7,41h-25.4c-1.5,0-2.8,1.2-2.8,2.8v25.4c0,1.5,1.2,2.8,2.8,2.8h25.4c1.5,0,2.8-1.2,2.8-2.8V43.8
			C174.5,42.3,173.3,41,171.7,41z M168.6,64.5c0,0.9-0.8,1.7-1.7,1.7h-15.7c-0.9,0-1.7-0.8-1.7-1.7V48.8c0-0.9,0.8-1.7,1.7-1.7h15.7
			c0.9,0,1.7,0.8,1.7,1.7V64.5z"/>
	</g>
</g>
<g>
	<g>
		<line class="st2" x1="121.4" y1="30.3" x2="199.8" y2="30.3"/>
		<g>
			<polygon class="st3" points="198.2,35.8 207.8,30.3 198.2,24.8 			"/>
		</g>
	</g>
</g>
<g>
	<rect x="92" y="159.2" class="st4" width="133.9" height="4.4"/>
</g>
<g>
	<rect x="104.1" y="156.9" class="st4" width="4.4" height="9"/>
</g>
<g>
	<rect x="139.2" y="156.9" class="st4" width="4.4" height="9"/>
</g>
<g>
	<rect x="174.3" y="156.9" class="st4" width="4.4" height="9"/>
</g>
<g>
	<rect x="209.5" y="156.9" class="st4" width="4.4" height="9"/>
</g>
<g>
	<g>
		<polygon class="st4" points="92,155.9 82.4,161.4 92,166.9 		"/>
	</g>
</g>
<g>
	<g>
		<line class="st2" x1="97.5" y1="54.7" x2="97.5" y2="132.4"/>
		<g>
			<polygon class="st3" points="92,130.7 97.5,140.3 103.1,130.7 			"/>
		</g>
	</g>
</g>
<path class="st3" d="M92,41.4v11.2h11.2V41.4H92z M98.3,47.9v2.6h-1.6v-2.6l-2.3-4.1H96l1.5,2.7l1.5-2.7h1.6L98.3,47.9z"/>
<path class="st3" d="M108.4,25.2v11.2h11.2V25.2H108.4z M115.5,34.2L114,32l-1.5,2.3h-1.8l2.4-3.5l-2.3-3.3h1.8l1.3,2l1.3-2h1.8
	l-2.3,3.3l2.4,3.5L115.5,34.2L115.5,34.2z"/>
<circle class="st4" cx="225.9" cy="161.4" r="5.5"/>
<path class="st0" d="M206.7,41.1h-25.4c-1.5,0-2.8,1.2-2.8,2.8v25.4c0,1.5,1.2,2.8,2.8,2.8h25.4c1.5,0,2.8-1.2,2.8-2.8V43.7
	C209.5,42.2,208.2,41.1,206.7,41.1z M202.9,58.5h-17.8v-4.2h17.8V58.5z"/>
<path class="st0" d="M206.7,76h-25.4c-1.5,0-2.8,1.2-2.8,2.8v25.4c0,1.5,1.2,2.8,2.8,2.8h25.4c1.5,0,2.8-1.2,2.8-2.8V78.7
	C209.5,77.2,208.2,76,206.7,76z M202.9,93.4h-17.8v-4.2h17.8V93.4z"/>
<path class="st0" d="M206.7,111h-25.4c-1.5,0-2.8,1.2-2.8,2.8v25.4c0,1.5,1.2,2.8,2.8,2.8h25.4c1.5,0,2.8-1.2,2.8-2.8v-25.5
	C209.5,112.2,208.2,111,206.7,111z M202.9,128.4h-17.8v-4.2h17.8V128.4z"/>
<g>
	<path class="st5" d="M136.7,76h-25.4c-1.5,0-2.8,1.2-2.8,2.8v25.4c0,1.5,1.2,2.8,2.8,2.8h25.4c1.5,0,2.8-1.2,2.8-2.8V78.8
		C139.5,77.2,138.3,76,136.7,76z M129.2,99h-10v-3.4h3v-8.2h-2.5v-3.4h6.5v11.6h3V99z"/>
</g>
<g>
	<path class="st5" d="M136.7,111h-25.4c-1.5,0-2.8,1.2-2.8,2.8v25.4c0,1.5,1.2,2.8,2.8,2.8h25.4c1.5,0,2.8-1.2,2.8-2.8v-25.4
		C139.4,112.2,138.2,111,136.7,111z M129.5,134.1h-10.7v-3.4c1.8-1.5,3.1-2.7,3.9-3.4s1.4-1.3,1.8-1.9c0.4-0.5,0.6-1,0.6-1.5
		c0-0.6-0.2-1-0.6-1.3s-0.9-0.4-1.5-0.4c-1.2,0-2.5,0.3-3.7,0.9v-3.5c0.7-0.3,1.5-0.5,2.2-0.6s1.5-0.2,2.4-0.2
		c1.5,0,2.8,0.4,3.7,1.2c1,0.8,1.4,2,1.4,3.5c0,0.9-0.2,1.6-0.5,2.3s-0.9,1.4-1.6,2.1c-0.7,0.7-1.8,1.6-3.1,2.7h5.7L129.5,134.1
		L129.5,134.1z"/>
</g>
<g>
	<path class="st5" d="M171.7,41h-25.4c-1.5,0-2.8,1.2-2.8,2.8v25.4c0,1.5,1.2,2.8,2.8,2.8h25.4c1.5,0,2.8-1.2,2.8-2.8V43.8
		C174.5,42.2,173.2,41,171.7,41z M162.7,63.2c-1,0.8-2.5,1.2-4.3,1.2s-3.3-0.3-4.6-0.8v-3.5c0.6,0.3,1.2,0.5,1.8,0.6
		c0.6,0.2,1.3,0.2,1.9,0.2c0.9,0,1.5-0.2,2-0.4c0.5-0.3,0.7-0.7,0.7-1.3c0-0.5-0.2-0.8-0.5-1.1c-0.4-0.2-0.9-0.4-1.6-0.4h-2.5v-3.1
		h2.5c1.3,0,1.9-0.4,1.9-1.2c0-0.4-0.2-0.7-0.6-0.9s-1-0.3-1.7-0.3c-1.4,0-2.7,0.3-3.7,0.8v-3.5c1.1-0.5,2.6-0.7,4.4-0.7
		c1.7,0,3.1,0.3,4.1,1s1.5,1.7,1.5,2.8c0,1-0.2,1.8-0.7,2.3c-0.4,0.6-1.1,1-2,1.3c0.9,0.2,1.6,0.6,2.1,1.3c0.5,0.6,0.8,1.4,0.8,2.5
		C164.3,61.3,163.8,62.4,162.7,63.2z"/>
</g>
<g>
	<path class="st5" d="M136.7,72h-25.4c-1.5,0-2.8-1.2-2.8-2.8V43.8c0-1.5,1.2-2.8,2.8-2.8h25.4c1.5,0,2.8,1.2,2.8,2.8v25.4
		C139.5,70.8,138.3,72,136.7,72z"/>
</g>
</svg>
